Obsidian-SemiLight/actions/24s/edit-table-insert-row-above.svg

<svg viewBox="0 0 24 24" xmlns="http://www.w3.org/2000/svg"><path d="m4 4v6 10h1 15v-1-9h-1v4h-2v-4h-1v4h-2v-4-6h-1v6 4h-2v-4h-1v4h-2v-4h-1v4h-1-1v-4-6zm13.5 0-2.5 5h5zm-12.5 11h1 1v1 3h-2zm3 0h2v4h-2v-3zm3 0h2v4h-2zm3 0h2v1 3h-2zm3 0h1.099609.900391v4h-2v-3z" fill="#4d4d4d"/><path d="m4 4v6h1 5.292969 2.707031 1v-6h-1-8zm1 1h.2929688l4 4h-4.2929688zm1.7070312 0h2.5859376l3.7070312 3.7070312v.2929688h-2.292969zm3.9999998 0h2.292969v2.2929688z" fill="#3daee9"/></svg>

<svg xmlns="http://www.w3.org/2000/svg" viewBox="0 0 24 24">
  <defs id="defs3051">
    <style type="text/css" id="current-color-scheme">
      .ColorScheme-Text {
        color:#4d4d4d;
      }
      .ColorScheme-Highlight {
        color:#3daee9;
      }
      </style>
  </defs>
 <path 
     style="fill:currentColor;fill-opacity:1;stroke:none" 
     d="M 4 4 L 4 10 L 4 20 L 5 20 L 20 20 L 20 19 L 20 10 L 19 10 L 19 14 L 17 14 L 17 10 L 16 10 L 16 14 L 14 14 L 14 10 L 14 4 L 13 4 L 13 10 L 13 14 L 11 14 L 11 10 L 10 10 L 10 14 L 8 14 L 8 10 L 7 10 L 7 14 L 6 14 L 5 14 L 5 10 L 5 4 L 4 4 z M 17.5 4 L 15 9 L 20 9 L 17.5 4 z M 5 15 L 6 15 L 7 15 L 7 16 L 7 19 L 5 19 L 5 15 z M 8 15 L 10 15 L 10 19 L 8 19 L 8 16 L 8 15 z M 11 15 L 13 15 L 13 19 L 11 19 L 11 15 z M 14 15 L 16 15 L 16 16 L 16 19 L 14 19 L 14 15 z M 17 15 L 18.099609 15 L 19 15 L 19 19 L 17 19 L 17 16 L 17 15 z "
     class="ColorScheme-Text"
     />
 <path 
     style="fill:currentColor;fill-opacity:1;stroke:none" 
     d="M 4 4 L 4 10 L 5 10 L 10.292969 10 L 13 10 L 14 10 L 14 4 L 13 4 L 5 4 L 4 4 z M 5 5 L 5.2929688 5 L 9.2929688 9 L 5 9 L 5 5 z M 6.7070312 5 L 9.2929688 5 L 13 8.7070312 L 13 9 L 10.707031 9 L 6.7070312 5 z M 10.707031 5 L 13 5 L 13 7.2929688 L 10.707031 5 z "
     class="ColorScheme-Highlight"
     />
</svg>
